!! 00000] TT[00
!! NN
!!!OTL: Lai lai wang wang hao jianmian
!!!ARE: Asia, China,ÿGansu, Huachi
!! Ethnic Group: Han
!! I, 131, 2)
!!!SCT: C0041
!!!YEM: Copyright 1995, estate of Helmut Schaffrath.
**kern
*ICvox
*Ivox
*M2/4
*k[f#]
*G:
{8a
8e
8d
8d
=1
8d
4.dd}
=2
{8.cc
16dd
16dd
16cc
8a
=3
4.g
8r}
=4
{8cc
4dd
8cc
=5
8a
8cc
8f#
8g}
=6
{8g
8a
16g
16a
8b
=7
2d}
==
!!!AGN: Shange, Xintianyou. Biaoda aiqing
!! Vereinzelt Verzierungen und Glissandi.
!!!ONB: ESAC (Essen Associative Code) Database: CHINA
!!!AMT: simple duple
!!!AIN: vox
!!!EED: Helmut Schaffrath
!!!EEV: 1.0
*-
